src/icons/sponsors/vercel.svg

<svg width="149" height="41" viewBox="0 0 149 41" fill="none" xmlns="http://www.w3.org/2000/svg">
    <path d="M73.1834 11.8477C67.8717 11.8477 64.0355 15.3207 64.0355 20.5188C64.0355 25.717 68.3484 29.19 73.6601 29.19C76.8834 29.19 79.6981 27.9188 81.4687 25.7851L77.7914 23.6514C76.8153 24.7182 75.3398 25.3311 73.6828 25.3311C71.3675 25.3311 69.4153 24.128 68.6889 22.1986H82.1951C82.3086 21.6538 82.354 21.109 82.354 20.5188C82.3313 15.298 78.5178 11.8477 73.1834 11.8477ZM68.6208 18.8164C69.2337 16.8869 70.8681 15.6839 73.1834 15.6839C75.4987 15.6839 77.1331 16.8869 77.746 18.8164H68.6208ZM125.051 11.8477C119.74 11.8477 115.904 15.3207 115.904 20.5188C115.904 25.717 120.217 29.19 125.528 29.19C128.752 29.19 131.566 27.9188 133.337 25.7851L129.659 23.6514C128.683 24.7182 127.208 25.3311 125.551 25.3311C123.236 25.3311 121.283 24.128 120.557 22.1986H134.063C134.177 21.6538 134.222 21.109 134.222 20.5188C134.222 15.298 130.386 11.8477 125.051 11.8477ZM120.512 18.8164C121.125 16.8869 122.759 15.6839 125.074 15.6839C127.39 15.6839 129.024 16.8869 129.637 18.8164H120.512ZM101.717 20.5188C101.717 23.4017 103.601 25.3311 106.529 25.3311C108.504 25.3311 110.002 24.4231 110.774 22.9704L114.474 25.1041C112.953 27.6464 110.07 29.19 106.529 29.19C101.194 29.19 97.3809 25.717 97.3809 20.5188C97.3809 15.3207 101.217 11.8477 106.529 11.8477C110.07 11.8477 112.93 13.3912 114.474 15.9336L110.774 18.0673C110.002 16.5918 108.526 15.7066 106.529 15.7066C103.601 15.6839 101.717 17.6133 101.717 20.5188ZM141.44 6.53602V28.6906H137.105V6.53602H141.44ZM23.0405 4.12988L40.8368 34.9557H5.24414L23.0405 4.12988ZM67.554 6.53602L54.2067 29.6667L40.8595 6.53602H45.876L54.2294 20.9955L62.5828 6.53602H67.554ZM95.9282 12.3244V17.0004C95.4515 16.8642 94.9294 16.7734 94.3846 16.7734C91.5926 16.7734 89.5724 18.7029 89.5724 21.5857V28.7133H85.2368V12.3244H89.5724V16.7507C89.5724 14.2992 92.4098 12.3244 95.9282 12.3244Z" fill="black"/>
</svg>

<svg xmlns="http://www.w3.org/2000/svg" width="149" height="41" fill="none">
    <path fill="currentColor"
        d="M73.183 11.848c-5.311 0-9.148 3.473-9.148 8.67 0 5.199 4.313 8.672 9.625 8.672 3.223 0 6.038-1.271 7.809-3.405l-3.678-2.134c-.976 1.067-2.451 1.68-4.108 1.68-2.316 0-4.268-1.203-4.994-3.132h13.506c.114-.545.159-1.09.159-1.68-.023-5.221-3.836-8.671-9.17-8.671Zm-4.562 6.968c.613-1.93 2.247-3.132 4.562-3.132 2.316 0 3.95 1.203 4.563 3.132h-9.125Zm56.43-6.968c-5.311 0-9.147 3.473-9.147 8.67 0 5.199 4.313 8.672 9.624 8.672 3.224 0 6.038-1.271 7.809-3.405l-3.678-2.134c-.976 1.067-2.451 1.68-4.108 1.68-2.315 0-4.268-1.203-4.994-3.132h13.506c.114-.545.159-1.09.159-1.68 0-5.221-3.836-8.671-9.171-8.671Zm-4.539 6.968c.613-1.93 2.247-3.132 4.562-3.132 2.316 0 3.95 1.203 4.563 3.132h-9.125Zm-18.795 1.703c0 2.883 1.884 4.812 4.812 4.812 1.975 0 3.473-.908 4.245-2.36l3.7 2.133c-1.521 2.542-4.404 4.086-7.945 4.086-5.335 0-9.148-3.473-9.148-8.671 0-5.198 3.836-8.671 9.148-8.671 3.541 0 6.401 1.543 7.945 4.086l-3.7 2.133c-.772-1.475-2.248-2.36-4.245-2.36-2.928-.023-4.812 1.906-4.812 4.812ZM141.44 6.536v22.155h-4.335V6.536h4.335ZM23.04 4.13l17.797 30.826H5.244L23.041 4.13Zm44.514 2.406-13.347 23.13-13.348-23.13h5.017l8.353 14.46 8.354-14.46h4.971Zm28.374 5.788V17a5.633 5.633 0 0 0-1.543-.227c-2.792 0-4.813 1.93-4.813 4.813v7.127h-4.335V12.324h4.335v4.427c0-2.452 2.838-4.427 6.356-4.427Z" />
</svg>
